icon/fa/hamsa.svg

<svg xmlns="http://www.w3.org/2000/svg" viewBox="0 0 512 512"><!--! Font Awesome Free 6.1.2 by @fontawesome - https://fontawesome.com License - https://fontawesome.com/license/free (Icons: CC BY 4.0, Fonts: SIL OFL 1.1, Code: MIT License) Copyright 2022 Fonticons, Inc.--><path d="M509.4 307.2c-5.1-11.7-16.6-19.2-29.4-19.2h-64V80c0-21.1-18-40-40-40s-40 18-40 40v134c0 5.5-4.5 10-10 10h-20c-5.5 0-10-4.5-10-9.1V40c0-21.1-17.1-40-39.1-40s-41.8 18-41.8 40v174c0 5.5-3.6 10-10 10h-20c-4.6 0-10-4.5-10-10V80c0-21.1-18-40-40-40s-40 18-40 40v208H31.99a32.01 32.01 0 0 0-29.372 19.2c-5 11.7-2.75 25.3 6 34.7l102.6 110C146.1 490.1 199.8 512 256 512s108.1-21.88 144.8-60.13l102.6-110c8.7-9.37 11-22.97 6-34.67zM256 416c-53 0-96.01-64-96.01-64s43-64 96.01-64 96.01 64 96.01 64S309 416 256 416zm0-96c-17.63 0-32 14.38-32 32s14.38 32 32 32 32-14.38 32-32-14.4-32-32-32z"/></svg>

<svg xmlns="http://www.w3.org/2000/svg" viewBox="0 0 512 512" height="1em" width="1em">
<!--! Font Awesome Free 6.1.2 by @fontawesome - https://fontawesome.com License - https://fontawesome.com/license/free (Icons: CC BY 4.0, Fonts: SIL OFL 1.1, Code: MIT License) Copyright 2022 Fonticons, Inc.-->
  <path d="M509.4 307.2C504.3 295.5 492.8 288 480 288h-64l.0001-208c0-21.1-18-40-40-40c-22 0-40 18-40 40l-.0001 134C336 219.5 331.5 224 326 224h-20c-5.5 0-10-4.5-10-9.1V40c0-21.1-17.1-40-39.1-40S215.1 18 215.1 40v174C215.1 219.5 211.5 224 205.1 224H185.1C180.5 224 175.1 219.5 175.1 214L175.1 80c0-21.1-18-40-40-40S95.1 58 95.1 80L95.1 288H31.99C19.24 288 7.743 295.5 2.618 307.2C-2.382 318.9-.1322 332.5 8.618 341.9l102.6 110C146.1 490.1 199.8 512 256 512s108.1-21.88 144.8-60.13l102.6-110C512.1 332.5 514.4 318.9 509.4 307.2zM256 416c-53 0-96.01-64-96.01-64s43-64 96.01-64s96.01 64 96.01 64S309 416 256 416zM256 320c-17.63 0-32 14.38-32 32s14.38 32 32 32s32-14.38 32-32S273.6 320 256 320z"/>
</svg>
